X: 0761
T: CORIMONY'S STRATHSPEY
B: Oliver Ditson "The Boston Collection of Instrumental Music" 1910 p.76 #1
F: http://conquest.imslp.info/files/imglnks/usimg/8/8f/IMSLP175643-PMLP309456-bostoncollection00bost_bw.pdf
%: 2012 John Chambers <jc:trillian.mit.edu>
M: 4/4
L: 1/8
K: D
B | A>DA>F d>FA<B | A<DA>F E>FG>B | A>DA>F d>FA>B | d>fe>g fdd :|
g | Tf2d>f g>ef<d | edf>d g<e=c>e | f2d>f g<ef<d | e/e/e e/e/e fdd ||
g | f2d>f g<ef<d | e>df<d g=ceg | f<ae<f d>ef<d | A<F A>g fee |]

%%sep 1 1 500
%%sep 1 1 500
